X: 13
T: Old Simon the King
R: slip-jig
M: 9/4
L: 1/8
Z: 2011 John Chambers <jc:trillian.mit.edu>
B: Andrew Shaw "Mr Kynaston's Famous Dance" p.13
P: Play ABCD
K: F
%
G2 "A"|\
"F"A3Bc2 "C"c3dc2 "F"c4G2 | "F"A3Bc2 "C"c3de2 "Dm"f4f2 |\
"F"A2F2F2 "Dm"F4G "F"A3Bc2 | "Bb"d4c2 "Gm"B4A2 "C"G4 |]
a2 "B"| "C"g4f2 e4d2 c4a2 | "C"g3afg "G"e3fde "C"c2d2e2 |\
"F"f2F2F2 ABcBAG "Dm"A4F2 | "Gm"g2G2G2 BcdcBA "C"B4|]
G2 "C"| "F"ABc2"C"E2 (c2G2)E2 c4G2 | "F"ABc2"C"E2 (c2G2)E2 c4G2 |\
"F"ABc2G2 (c2A2)F2 A4F2 | "Bb"Bcd2G2 "C"efg2d2 "Gm"B4|]
G2 "D"| "C"e3fga g2e2d2 "C"c3dec | "C"e3fga g2e2c2 "F"f3gaf |\
"F"a2b2c'2 c2A2F2 "F"A2B2c2 | "Bb"d3efd "Gm"B3AB2 "D"G3ABG |]
